images/icons/amazon.svg

<svg fill="none" height="24" viewBox="0 0 24 24" width="24" xmlns="http://www.w3.org/2000/svg" xmlns:xlink="http://www.w3.org/1999/xlink"><clipPath id="a"><path d="m0 0h24v24h-24z"/></clipPath><g clip-path="url(#a)"><path d="m20.6611 19.3765c-9.7152 4.6235-15.74453.7551-19.60411-1.5944-.238828-.1481-.644755.0346-.292558.4391 1.285818 1.5591 5.499718 5.3168 11.000068 5.3168 5.5042 0 8.7786-3.0032 9.1883-3.5271.4068-.5195.1194-.8061-.2918-.6344zm2.7285-1.5068c-.2609-.3398-1.5864-.4031-2.4206-.3006-.8355.0995-2.0895.6101-1.9805.9167.0559.1148.1701.0633.7441.0117.5755-.0574 2.1877-.2609 2.5237.1783.3375.4422-.5142 2.5487-.6698 2.8884-.1503.3397.0574.4273.3398.2011.2784-.2262.7825-.812 1.1207-1.6409.336-.8334.5408-1.9961.3425-2.2547z" fill="#f90"/><path clip-rule="evenodd" d="m14.1286 9.94197c0 1.21313.0307 2.22493-.5825 3.30223-.4949.876-1.2789 1.4147-2.1548 1.4147-1.1957 0-1.89207-.911-1.89207-2.2555 0-2.65419 2.37807-3.13591 4.62937-3.13591zm3.1402 7.59003c-.2059.1839-.5037.1971-.7358.0744-1.0336-.8583-1.2176-1.2569-1.7869-2.0759-1.708 1.7431-2.9169 2.2643-5.13295 2.2643-2.61906 0-4.66003-1.6162-4.66003-4.8528 0-2.527 1.37093-4.24827 3.31976-5.0891 1.69062-.74465 4.05132-.87602 5.85572-1.08179v-.40297c0-.74021.0569-1.61613-.3767-2.25553-.381-.57376-1.108-.81028-1.7475-.81028-1.1869 0-2.24677.60875-2.50517 1.8701-.05262.28037-.2584.55631-.53868.56942l-3.02202-.32404c-.25397-.05705-.53425-.26283-.46418-.65269.69636-3.66136 4.00291-4.76512 6.96355-4.76512 1.5154 0 3.495.402971 4.6907 1.55049 1.5154 1.4146 1.3708 3.30224 1.3708 5.35632v4.85269c0 1.4585.6044 2.0979 1.1737 2.8863.2015.2803.2453.6176-.0087.8277-.6351.5299-1.7651 1.5154-2.3869 2.0673l-.0088-.0088" fill="#000" fill-rule="evenodd"/><path d="m20.6611 19.3765c-9.7152 4.6235-15.74453.7551-19.60411-1.5944-.238828-.1481-.644755.0346-.292558.4391 1.285818 1.5591 5.499718 5.3168 11.000068 5.3168 5.5042 0 8.7786-3.0032 9.1883-3.5271.4068-.5195.1194-.8061-.2918-.6344zm2.7285-1.5068c-.2609-.3398-1.5864-.4031-2.4206-.3006-.8355.0995-2.0895.6101-1.9805.9167.0559.1148.1701.0633.7441.0117.5755-.0574 2.1877-.2609 2.5237.1783.3375.4422-.5142 2.5487-.6698 2.8884-.1503.3397.0574.4273.3398.2011.2784-.2262.7825-.812 1.1207-1.6409.336-.8334.5408-1.9961.3425-2.2547z" fill="#f90"/><path clip-rule="evenodd" d="m14.1286 9.94197c0 1.21313.0307 2.22493-.5825 3.30223-.4949.876-1.2789 1.4147-2.1548 1.4147-1.1957 0-1.89207-.911-1.89207-2.2555 0-2.65419 2.37807-3.13591 4.62937-3.13591zm3.1402 7.59003c-.2059.1839-.5037.1971-.7358.0744-1.0336-.8583-1.2176-1.2569-1.7869-2.0759-1.708 1.7431-2.9169 2.2643-5.13295 2.2643-2.61906 0-4.66003-1.6162-4.66003-4.8528 0-2.527 1.37093-4.24827 3.31976-5.0891 1.69062-.74465 4.05132-.87602 5.85572-1.08179v-.40297c0-.74021.0569-1.61613-.3767-2.25553-.381-.57376-1.108-.81028-1.7475-.81028-1.1869 0-2.24677.60875-2.50517 1.8701-.05262.28037-.2584.55631-.53868.56942l-3.02202-.32404c-.25397-.05705-.53425-.26283-.46418-.65269.69636-3.66136 4.00291-4.76512 6.96355-4.76512 1.5154 0 3.495.402971 4.6907 1.55049 1.5154 1.4146 1.3708 3.30224 1.3708 5.35632v4.85269c0 1.4585.6044 2.0979 1.1737 2.8863.2015.2803.2453.6176-.0087.8277-.6351.5299-1.7651 1.5154-2.3869 2.0673l-.0088-.0088" fill="#000" fill-rule="evenodd"/></g></svg>

<svg width="24" height="24" viewBox="0 0 24 24" fill="none" xmlns="http://www.w3.org/2000/svg">
<g clip-path="url(#clip0_1432_8523)">
<path d="M20.6611 19.3765C10.9459 24 4.91657 20.1316 1.05699 17.7821C0.818162 17.634 0.412235 17.8167 0.764432 18.2212C2.05025 19.7803 6.26415 23.538 11.7645 23.538C17.2687 23.538 20.5431 20.5348 20.9528 20.0109C21.3596 19.4914 21.0722 19.2048 20.661 19.3765H20.6611ZM23.3896 17.8697C23.1287 17.5299 21.8032 17.4666 20.969 17.5691C20.1335 17.6686 18.8795 18.1792 18.9885 18.4858C19.0444 18.6006 19.1586 18.5491 19.7326 18.4975C20.3081 18.4401 21.9203 18.2366 22.2563 18.6758C22.5938 19.118 21.7421 21.2245 21.5865 21.5642C21.4362 21.9039 21.6439 21.9915 21.9263 21.7653C22.2047 21.5391 22.7088 20.9533 23.047 20.1244C23.383 19.291 23.5878 18.1283 23.3895 17.8697H23.3896Z" fill="#FF9900"/>
<path fill-rule="evenodd" clip-rule="evenodd" d="M14.1286 9.94197C14.1286 11.1551 14.1593 12.1669 13.5461 13.2442C13.0512 14.1202 12.2672 14.6589 11.3913 14.6589C10.1956 14.6589 9.49923 13.7479 9.49923 12.4034C9.49923 9.74921 11.8773 9.26749 14.1286 9.26749V9.94197ZM17.2688 17.532C17.0629 17.7159 16.7651 17.7291 16.533 17.6064C15.4994 16.7481 15.3154 16.3495 14.7461 15.5305C13.0381 17.2736 11.8292 17.7948 9.61315 17.7948C6.99409 17.7948 4.95312 16.1786 4.95312 12.942C4.95312 10.415 6.32405 8.69373 8.27288 7.8529C9.9635 7.10825 12.3242 6.97688 14.1286 6.77111V6.36814C14.1286 5.62793 14.1855 4.75201 13.7519 4.11261C13.3709 3.53885 12.6439 3.30233 12.0044 3.30233C10.8175 3.30233 9.75763 3.91108 9.49923 5.17243C9.44661 5.4528 9.24083 5.72874 8.96055 5.74185L5.93853 5.41781C5.68456 5.36076 5.40428 5.15498 5.47435 4.76512C6.17071 1.10376 9.47726 0 12.4379 0C13.9533 0 15.9329 0.402971 17.1286 1.55049C18.644 2.96509 18.4994 4.85273 18.4994 6.90681V11.7595C18.4994 13.218 19.1038 13.8574 19.6731 14.6458C19.8746 14.9261 19.9184 15.2634 19.6644 15.4735C19.0293 16.0034 17.8993 16.9889 17.2775 17.5408L17.2687 17.532" fill="black"/>
<path d="M20.6611 19.3765C10.9459 24 4.91657 20.1316 1.05699 17.7821C0.818162 17.634 0.412235 17.8167 0.764432 18.2212C2.05025 19.7803 6.26415 23.538 11.7645 23.538C17.2687 23.538 20.5431 20.5348 20.9528 20.0109C21.3596 19.4914 21.0722 19.2048 20.661 19.3765H20.6611ZM23.3896 17.8697C23.1287 17.5299 21.8032 17.4666 20.969 17.5691C20.1335 17.6686 18.8795 18.1792 18.9885 18.4858C19.0444 18.6006 19.1586 18.5491 19.7326 18.4975C20.3081 18.4401 21.9203 18.2366 22.2563 18.6758C22.5938 19.118 21.7421 21.2245 21.5865 21.5642C21.4362 21.9039 21.6439 21.9915 21.9263 21.7653C22.2047 21.5391 22.7088 20.9533 23.047 20.1244C23.383 19.291 23.5878 18.1283 23.3895 17.8697H23.3896Z" fill="#FF9900"/>
<path fill-rule="evenodd" clip-rule="evenodd" d="M14.1286 9.94197C14.1286 11.1551 14.1593 12.1669 13.5461 13.2442C13.0512 14.1202 12.2672 14.6589 11.3913 14.6589C10.1956 14.6589 9.49923 13.7479 9.49923 12.4034C9.49923 9.74921 11.8773 9.26749 14.1286 9.26749V9.94197ZM17.2688 17.532C17.0629 17.7159 16.7651 17.7291 16.533 17.6064C15.4994 16.7481 15.3154 16.3495 14.7461 15.5305C13.0381 17.2736 11.8292 17.7948 9.61315 17.7948C6.99409 17.7948 4.95312 16.1786 4.95312 12.942C4.95312 10.415 6.32405 8.69373 8.27288 7.8529C9.9635 7.10825 12.3242 6.97688 14.1286 6.77111V6.36814C14.1286 5.62793 14.1855 4.75201 13.7519 4.11261C13.3709 3.53885 12.6439 3.30233 12.0044 3.30233C10.8175 3.30233 9.75763 3.91108 9.49923 5.17243C9.44661 5.4528 9.24083 5.72874 8.96055 5.74185L5.93853 5.41781C5.68456 5.36076 5.40428 5.15498 5.47435 4.76512C6.17071 1.10376 9.47726 0 12.4379 0C13.9533 0 15.9329 0.402971 17.1286 1.55049C18.644 2.96509 18.4994 4.85273 18.4994 6.90681V11.7595C18.4994 13.218 19.1038 13.8574 19.6731 14.6458C19.8746 14.9261 19.9184 15.2634 19.6644 15.4735C19.0293 16.0034 17.8993 16.9889 17.2775 17.5408L17.2687 17.532" fill="black"/>
</g>
<defs>
<clipPath id="clip0_1432_8523">
<rect width="24" height="24" fill="white"/>
</clipPath>
</defs>
</svg>
